X:1
T:Mrs Gordon of Park
T:Mrs Gordon of Park
T:William Marshall
C:William Marshall
%%score { ( 1 2 ) 3 }
L:1/8
M:4/4
K:A
V:1 treble 
V:2 treble 
V:3 bass 
V:1
 C<EE>F E>C E<A | C<E EE/G/ A<CB,>D | C<E EE/G/ A>B c<A | d>e f/e/d/c/ d/c/B/A/{G} F2 :| %4
 e<c{c}a>g (a/g/)f/e/ a2 | e<c{g}a>g (f/e/)d/c/ Bc/d/ | e>cd>B c>AB>G | A<cF<A E<C B,2 | %8
 e<c{c}a>g (a/g/)f/e/ a2 | e<c{g}a>g (f/e/)d/c/ Bc/d/ | (f/e/)d/c/ (e/d/)c/B/ d/c/B/A/ c/B/A/G/ | %11
 A<cF<A E<C B,2 |] %12
V:2
 x8 | x8 | x8 | A2 A2 x4 :| x8 | x8 | x8 | x8 | x8 | x8 | x4 A2 x2 | x8 |] %12
V:3
 [Aa]2 [Aa]2 [Aa]2 [Aa]2 | [Aa]2 [Aa]2 [Aa]2 [Ee]2 | [Aa]2 [Aa]2 [Aa]2 [Aa]2 | %3
 [Ff]2 [Dd]2 [B,B][Cc] [Dd]2 :| [eac']2 [ac'e']2 [ac'e']2 [ac'e']2 | %5
 [ac'e']2 [ac'e']2 [ac'e']2 [ebe']2 | [ae']2 [ge']2 [ae']2 [bd'e']2 | [ac'e']2 [Dd]2 [Aa]2 [Eeg]2 | %8
 [eac']2 [ac'e']2 [ac'e']2 [ac'e']2 | [ac'e']2 [ac'e']2 [ac'e']2 [Ee]2 | %10
 [ac'e']2 [bd'e']2 [ae'][c'e'] [ed'][fc'] | [cc']2 [dd']2 [Aa]2 [Ee]2 |] %12

